Carto/POI/SVG/car-dealership_solid_24px.svg

<svg width="24" height="24" viewBox="0 0 24 24" fill="none" xmlns="http://www.w3.org/2000/svg">
<path d="M19.76 13L18.76 10.7C18.5689 10.241 18.2587 9.84133 17.8614 9.54244C17.464 9.24355 16.994 9.05628 16.5 9V11.05C16.6863 11.141 16.8323 11.2978 16.91 11.49L18 14H6L7.11 11.51C7.18768 11.3178 7.33371 11.161 7.52 11.07V9C7.02599 9.05628 6.55599 9.24355 6.15865 9.54244C5.76131 9.84133 5.45105 10.241 5.26 10.7L4.26 13H2.5C2.34475 13.1164 2.21875 13.2674 2.13197 13.441C2.04518 13.6146 2 13.8059 2 14C2 14.1941 2.04518 14.3854 2.13197 14.559C2.21875 14.7326 2.34475 14.8836 2.5 15H3V21C3 21.2652 3.10536 21.5196 3.29289 21.7071C3.48043 21.8946 3.73478 22 4 22H7C7.26522 22 7.51957 21.8946 7.70711 21.7071C7.89464 21.5196 8 21.2652 8 21V20H16V21C16 21.2652 16.1054 21.5196 16.2929 21.7071C16.4804 21.8946 16.7348 22 17 22H20C20.2652 22 20.5196 21.8946 20.7071 21.7071C20.8946 21.5196 21 21.2652 21 21V15H21.5C21.6552 14.8836 21.7812 14.7326 21.868 14.559C21.9548 14.3854 22 14.1941 22 14C22 13.8059 21.9548 13.6146 21.868 13.441C21.7812 13.2674 21.6552 13.1164 21.5 13H19.76ZM8 18H5.5C5.34475 17.8836 5.21875 17.7326 5.13197 17.559C5.04518 17.3854 5 17.1941 5 17C5 16.8059 5.04518 16.6146 5.13197 16.441C5.21875 16.2674 5.34475 16.1164 5.5 16H8V18ZM18.5 18H16V16H18.5C18.6552 16.1164 18.7812 16.2674 18.868 16.441C18.9548 16.6146 19 16.8059 19 17C19 17.1941 18.9548 17.3854 18.868 17.559C18.7812 17.7326 18.6552 17.8836 18.5 18ZM11.89 10.16C11.1881 10.1566 10.5132 9.88885 10 9.41L9.8 9.26L8.69 10.5L8.86 10.67C9.45282 11.229 10.1971 11.6012 11 11.74V13H13V11.72C13.6156 11.6204 14.1759 11.3053 14.5807 10.8309C14.9855 10.3565 15.2085 9.75364 15.21 9.13C15.21 7.5 14.21 6.84 12.66 6.36C11.33 5.95 11.19 5.73 11.19 5.36C11.19 4.72 11.88 4.66 12.19 4.66C12.7939 4.66009 13.3771 4.88054 13.83 5.28L14.02 5.44L15.09 4.2L14.9 4C14.3756 3.49141 13.7161 3.1443 13 3V2H11V3.13C10.4704 3.2451 9.99541 3.53604 9.65224 3.95547C9.30907 4.3749 9.11796 4.89813 9.11 5.44C9.11 6.75 9.86 7.52 11.7 8.09C12.97 8.48 13.11 8.74 13.11 9.21C13.11 10.09 12.17 10.16 11.89 10.16Z" fill="#0F1621"/>
</svg>

<svg xmlns="http://www.w3.org/2000/svg" width="24" height="24" viewBox="0 0 24 24"><rect width="24" height="24" style="fill:none"/><path d="M19.76,13l-1-2.3A2.79,2.79,0,0,0,16.5,9v2.05a.84.84,0,0,1,.41.44L18,14H6l1.11-2.49a.84.84,0,0,1,.41-.44V9A2.79,2.79,0,0,0,5.26,10.7l-1,2.3H2.5a1.25,1.25,0,0,0,0,2H3v6a1,1,0,0,0,1,1H7a1,1,0,0,0,1-1V20h8v1a1,1,0,0,0,1,1h3a1,1,0,0,0,1-1V15h.5a1.25,1.25,0,0,0,0-2ZM8,18H5.5a1.25,1.25,0,0,1,0-2H8Zm10.5,0H16V16h2.5A1.25,1.25,0,0,1,18.5,18Zm-6.61-7.84A2.79,2.79,0,0,1,10,9.41L9.8,9.26,8.69,10.5l.17.17A4.15,4.15,0,0,0,11,11.74V13h2V11.72a2.63,2.63,0,0,0,2.21-2.59c0-1.63-1-2.29-2.55-2.77-1.33-.41-1.47-.63-1.47-1,0-.64.69-.7,1-.7a2.48,2.48,0,0,1,1.64.62l.19.16,1.07-1.24L14.9,4a3.81,3.81,0,0,0-1.9-1V2H11V3.13A2.4,2.4,0,0,0,9.11,5.44c0,1.31.75,2.08,2.59,2.65,1.27.39,1.41.65,1.41,1.12C13.11,10.09,12.17,10.16,11.89,10.16Z"/></svg>
